;FLAVOR:Marlin
;TIME:12039
;Filament used: 4.26558m
;Layer height: 0.1
;MINX:77.75
;MINY:81.75
;MINZ:0.1
;MAXX:142.25
;MAXY:138.25
;MAXZ:40
;Generated with Cura_SteamEngine 5.0.0
M140 S45
M105
M190 S45
M104 S220
M105
M109 S220
M82 ;absolute extrusion mode
M201 X500.00 Y500.00 Z100.00 E5000.00 ;Setup machine max acceleration
M203 X500.00 Y500.00 Z10.00 E50.00 ;Setup machine max feedrate
M204 P500.00 R1000.00 T500.00 ;Setup Print/Retract/Travel acceleration
M205 X8.00 Y8.00 Z0.40 E5.00 ;Setup Jerk
M220 S100 ;Reset Feedrate
M221 S100 ;Reset Flowrate

G28 ;Home
M420 S1 Z2 ;Enable ABL using saved Mesh and Fade Height

G92 E0 ;Reset Extruder
G1 Z2.0 F3000 ;Move Z Axis up
G1 X10.1 Y20 Z0.28 F5000.0 ;Move to start position
G1 X10.1 Y200.0 Z0.28 F1500.0 E15 ;Draw the first line
G1 X10.4 Y200.0 Z0.28 F5000.0 ;Move to side a little
G1 X10.4 Y20 Z0.28 F1500.0 E30 ;Draw the second line
G92 E0 ;Reset Extruder
G1 Z2.0 F3000 ;Move Z Axis up

G92 E0
G92 E0
G1 F2400 E-4.5
;LAYER_COUNT:400
;LAYER:0
M107
G0 F6000 X81.703 Y85.871 Z0.1
G0 X77.752 Y95.987
;TYPE:SKIRT
G1 F2400 E0
G1 F1200 X77.766 Y95.254 E0.01195
G1 X77.825 Y94.284 E0.02779
G1 X77.998 Y93.143 E0.04659
G1 X78.143 Y92.425 E0.05853
G1 X78.374 Y91.482 E0.07435
G1 X78.682 Y90.56 E0.0902
G1 X79.065 Y89.668 E0.10602
G1 X79.723 Y88.475 E0.12822
G1 X80.193 Y87.753 E0.14226
G1 X80.464 Y87.365 E0.14998
G1 X81.053 Y86.592 E0.16581
G1 X81.703 Y85.871 E0.18163
G1 X82.41 Y85.205 E0.19746
G1 X83.456 Y84.396 E0.21901
G1 X84.01 Y84.021 E0.22992
G1 X84.355 Y83.798 E0.23661
G1 X85.192 Y83.305 E0.25244
G1 X86.067 Y82.882 E0.26828
G1 X86.973 Y82.532 E0.28411
G1 X88.205 Y82.188 E0.30496
G1 X89.061 Y82.011 E0.3192
G1 X89.51 Y81.933 E0.32663
G1 X90.473 Y81.806 E0.34246
G1 X91.36 Y81.76 E0.35694
G1 X92.154 Y81.75 E0.36988
G1 X127.788 Y81.75 E0.95062
G1 X128.746 Y81.766 E0.96624
G1 X129.716 Y81.825 E0.98208
G1 X130.869 Y82 E1.00108
G1 X131.593 Y82.147 E1.01312
G1 X132.536 Y82.379 E1.02895
G1 X133.457 Y82.688 E1.04478
G1 X134.349 Y83.072 E1.06061
G1 X135.601 Y83.769 E1.08396
G1 X136.229 Y84.181 E1.0962
G1 X136.617 Y84.451 E1.10391
G1 X137.391 Y85.039 E1.11975
G1 X138.114 Y85.687 E1.13557
G1 X138.781 Y86.394 E1.15141
G1 X139.388 Y87.152 E1.16724
G1 X139.695 Y87.592 E1.17598
G1 X140.107 Y88.21 E1.18809
G1 X140.612 Y89.039 E1.20391
G1 X141.047 Y89.908 E1.21974
G1 X141.41 Y90.809 E1.23557
G1 X141.697 Y91.737 E1.25141
G1 X141.843 Y92.36 E1.26183
G1 X141.997 Y93.126 E1.27457
G1 X142.057 Y93.463 E1.28015
G1 X142.188 Y94.425 E1.29597
G1 X142.237 Y95.262 E1.30963
G1 X142.25 Y95.97 E1.32117
G1 X142.248 Y124.013 E1.7782
G1 X142.234 Y124.746 E1.79015
G1 X142.175 Y125.716 E1.80599
G1 X142.002 Y126.86 E1.82485
G1 X141.856 Y127.582 E1.83685
G1 X141.624 Y128.525 E1.85268
G1 X141.316 Y129.446 E1.8685
G1 X140.933 Y130.339 E1.88434
G1 X140.237 Y131.591 E1.90769
G1 X139.803 Y132.251 E1.92056
G1 X139.531 Y132.64 E1.9283
G1 X138.942 Y133.412 E1.94412
G1 X138.292 Y134.134 E1.95995
G1 X137.584 Y134.799 E1.97578
G1 X136.543 Y135.604 E1.99723
G1 X136.002 Y135.971 E2.00788
G1 X135.658 Y136.194 E2.01457
G1 X134.822 Y136.688 E2.03039
G1 X133.948 Y137.112 E2.04622
G1 X133.042 Y137.462 E2.06205
G1 X131.769 Y137.818 E2.08359
G1 X130.932 Y137.99 E2.09752
G1 X130.489 Y138.067 E2.10485
G1 X129.526 Y138.194 E2.12068
G1 X128.63 Y138.24 E2.1353
G1 X127.812 Y138.25 E2.14863
G1 X91.987 Y138.248 E2.73249
G1 X91.254 Y138.234 E2.74444
G1 X90.284 Y138.175 E2.76028
G1 X89.131 Y138 E2.77928
G1 X88.407 Y137.853 E2.79132
G1 X87.464 Y137.621 E2.80715
G1 X86.543 Y137.312 E2.82298
G1 X85.651 Y136.928 E2.83881
G1 X84.399 Y136.231 E2.86216
G1 X83.761 Y135.812 E2.8746
G1 X83.371 Y135.54 E2.88235
G1 X82.598 Y134.952 E2.89818
G1 X81.875 Y134.302 E2.91402
G1 X81.209 Y133.595 E2.92985
G1 X80.395 Y132.543 E2.95153
G1 X80.028 Y132.001 E2.9622
G1 X79.807 Y131.66 E2.96882
G1 X79.312 Y130.823 E2.98467
G1 X78.889 Y129.949 E3.00049
G1 X78.538 Y129.043 E3.01633
G1 X78.157 Y127.648 E3.0399
G1 X78.006 Y126.897 E3.05238
G1 X77.943 Y126.543 E3.05824
G1 X77.812 Y125.58 E3.07408
G1 X77.762 Y124.667 E3.08898
G1 X77.75 Y123.86 E3.10214
G1 X77.752 Y95.987 E3.55639
G0 F6000 X78.152 Y95.994
G1 F1200 X78.166 Y95.261 E3.56834
G1 X78.224 Y94.308 E3.5839
G1 X78.39 Y93.222 E3.60181
G1 X78.535 Y92.504 E3.61375
G1 X78.763 Y91.577 E3.6293
G1 X79.067 Y90.672 E3.64486
G1 X79.447 Y89.796 E3.66042
G1 X80.061 Y88.688 E3.68107
G1 X80.521 Y87.982 E3.6948
G1 X80.792 Y87.594 E3.70252
G1 X81.371 Y86.835 E3.71807
G1 X82.011 Y86.127 E3.73363
G1 X82.709 Y85.475 E3.74919
G1 X83.682 Y84.726 E3.76921
G1 X84.228 Y84.357 E3.77995
G1 X84.573 Y84.134 E3.78664
G1 X85.395 Y83.65 E3.80219
G1 X86.256 Y83.236 E3.81776
G1 X87.148 Y82.896 E3.83331
G1 X88.292 Y82.579 E3.85266
G1 X89.13 Y82.405 E3.86661
G1 X89.579 Y82.327 E3.87404
G1 X90.526 Y82.203 E3.8896
G1 X91.366 Y82.16 E3.90331
G1 X92.154 Y82.15 E3.91615
G1 X127.788 Y82.15 E4.4969
G1 X128.739 Y82.166 E4.5124
G1 X129.692 Y82.224 E4.52796
G1 X130.789 Y82.392 E4.54605
G1 X131.513 Y82.539 E4.55809
G1 X132.44 Y82.768 E4.57365
G1 X133.345 Y83.074 E4.58922
G1 X134.221 Y83.454 E4.60478
G1 X135.386 Y84.106 E4.62654
G1 X136.001 Y84.51 E4.63853
G1 X136.389 Y84.78 E4.64623
G1 X137.149 Y85.357 E4.66178
G1 X137.858 Y85.997 E4.67735
G1 X138.511 Y86.693 E4.6929
G1 X139.362 Y87.813 E4.71583
G1 X139.774 Y88.431 E4.72793
G1 X140.27 Y89.247 E4.7435
G1 X140.696 Y90.102 E4.75906
G1 X141.049 Y90.989 E4.77462
G1 X141.326 Y91.903 E4.79019
G1 X141.452 Y92.441 E4.79919
G1 X141.604 Y93.196 E4.81174
G1 X141.664 Y93.533 E4.81732
G1 X141.791 Y94.479 E4.83288
G1 X141.837 Y95.271 E4.84581
G1 X141.85 Y95.97 E4.8572
G1 X141.848 Y124.006 E5.31412
G1 X141.834 Y124.739 E5.32607
G1 X141.776 Y125.692 E5.34163
G1 X141.61 Y126.781 E5.35958
G1 X141.464 Y127.503 E5.37158
G1 X141.236 Y128.43 E5.38714
G1 X140.931 Y129.334 E5.40269
G1 X140.551 Y130.21 E5.41825
G1 X139.9 Y131.376 E5.44002
G1 X139.476 Y132.022 E5.45261
G1 X139.204 Y132.411 E5.46035
G1 X138.624 Y133.17 E5.47591
G1 X137.983 Y133.877 E5.49147
G1 X137.285 Y134.529 E5.50703
G1 X136.317 Y135.274 E5.52694
G1 X135.784 Y135.635 E5.53743
G1 X135.44 Y135.858 E5.54411
G1 X134.618 Y136.343 E5.55967
G1 X133.758 Y136.758 E5.57523
G1 X132.866 Y137.1 E5.5908
G1 X131.683 Y137.427 E5.6108
G1 X130.863 Y137.596 E5.62445
G1 X130.42 Y137.673 E5.63178
G1 X129.474 Y137.797 E5.64732
G1 X128.624 Y137.84 E5.6612
G1 X127.812 Y137.85 E5.67443
G1 X91.994 Y137.848 E6.25817
G1 X91.261 Y137.834 E6.27012
G1 X90.308 Y137.776 E6.28568
G1 X89.211 Y137.608 E6.30377
G1 X88.487 Y137.461 E6.31581
G1 X87.56 Y137.232 E6.33137
G1 X86.655 Y136.926 E6.34694
G1 X85.779 Y136.546 E6.3625
G1 X84.614 Y135.894 E6.38426
G1 X83.99 Y135.483 E6.39644
G1 X83.6 Y135.211 E6.40419
G1 X82.84 Y134.633 E6.41975
G1 X82.132 Y133.993 E6.4353
G1 X81.479 Y133.296 E6.45087
G1 X80.725 Y132.317 E6.47101
G1 X80.363 Y131.783 E6.48152
G1 X80.142 Y131.442 E6.48814
G1 X79.657 Y130.62 E6.5037
G1 X79.242 Y129.76 E6.51926
G1 X78.901 Y128.868 E6.53482
G1 X78.548 Y127.566 E6.55681
G1 X78.399 Y126.826 E6.56911
G1 X78.336 Y126.472 E6.57497
G1 X78.209 Y125.526 E6.59053
G1 X78.162 Y124.66 E6.60466
G1 X78.15 Y123.86 E6.6177
G1 X78.152 Y95.994 E7.07184
G0 F6000 X78.552 Y96.002
G1 F1200 X78.566 Y95.269 E7.08379
G1 X78.624 Y94.333 E7.09908
G1 X78.782 Y93.302 E7.11608
G1 X78.927 Y92.584 E7.12801
G1 X79.151 Y91.673 E7.1433
G1 X79.453 Y90.785 E7.15859
G1 X79.829 Y89.926 E7.17387
G1 X80.4 Y88.901 E7.19299
G1 X80.849 Y88.211 E7.20641
G1 X81.12 Y87.823 E7.21412
G1 X81.689 Y87.078 E7.2294
G1 X82.32 Y86.384 E7.24469
G1 X83.008 Y85.746 E7.25998
G1 X83.909 Y85.056 E7.27847
G1 X84.445 Y84.693 E7.28902
G1 X84.79 Y84.47 E7.29572
G1 X85.598 Y83.995 E7.31099
G1 X86.444 Y83.59 E7.32628
G1 X87.322 Y83.259 E7.34157
G1 X88.378 Y82.969 E7.35942
G1 X89.198 Y82.799 E7.37307
G1 X89.647 Y82.721 E7.38049
G1 X90.577 Y82.6 E7.39578
G1 X91.371 Y82.56 E7.40874
G1 X92.154 Y82.55 E7.4215
G1 X127.788 Y82.55 E8.00224
G1 X128.731 Y82.566 E8.01761
G1 X129.667 Y82.624 E8.0329
G1 X130.71 Y82.784 E8.05009
G1 X131.434 Y82.931 E8.06213
G1 X132.344 Y83.157 E8.07741
G1 X133.232 Y83.459 E8.0927
G1 X134.091 Y83.836 E8.10799
G1 X135.17 Y84.443 E8.12817
G1 X135.772 Y84.838 E8.1399
G1 X136.16 Y85.108 E8.1476
G1 X136.906 Y85.676 E8.16288
G1 X137.602 Y86.306 E8.17818
G1 X138.241 Y86.992 E8.19346
G1 X139.03 Y88.035 E8.21478
G1 X139.442 Y88.653 E8.22688
G1 X139.928 Y89.455 E8.24217
G1 X140.344 Y90.295 E8.25744
G1 X140.688 Y91.168 E8.27273
G1 X141.06 Y92.522 E8.29562
G1 X141.21 Y93.266 E8.30799
G1 X141.27 Y93.603 E8.31357
G1 X141.395 Y94.532 E8.32884
G1 X141.437 Y95.28 E8.34105
G1 X141.45 Y95.97 E8.3523
G1 X141.448 Y123.998 E8.80909
G1 X141.434 Y124.731 E8.82103
G1 X141.376 Y125.667 E8.83632
G1 X141.218 Y126.701 E8.85337
G1 X141.072 Y127.423 E8.86537
G1 X140.847 Y128.334 E8.88066
G1 X140.545 Y129.222 E8.89595
G1 X140.169 Y130.081 E8.91123
G1 X139.563 Y131.161 E8.93141
G1 X139.148 Y131.792 E8.94372
G1 X138.876 Y132.181 E8.95146
G1 X138.306 Y132.926 E8.96675
G1 X137.675 Y133.62 E8.98203
G1 X136.987 Y134.258 E8.99732
G1 X136.09 Y134.944 E9.01573
G1 X135.567 Y135.299 E9.02603
G1 X135.223 Y135.522 E9.03271
G1 X134.415 Y135.998 E9.048
G1 X133.569 Y136.404 E9.06329
G1 X132.692 Y136.736 E9.07857
G1 X131.597 Y137.036 E9.09707
G1 X130.795 Y137.202 E9.11042
G1 X130.352 Y137.279 E9.11775
G1 X129.422 Y137.4 E9.13303
G1 X128.619 Y137.44 E9.14614
G1 X127.812 Y137.45 E9.15929
G1 X92.002 Y137.448 E9.7429
G1 X91.269 Y137.434 E9.75485
G1 X90.333 Y137.376 E9.77013
G1 X89.29 Y137.216 E9.78733
G1 X88.566 Y137.069 E9.79937
G1 X87.656 Y136.843 E9.81465
G1 X86.768 Y136.541 E9.82994
G1 X85.909 Y136.164 E9.84523
G1 X84.83 Y135.557 E9.8654
G1 X84.218 Y135.155 E9.87734
G1 X83.828 Y134.883 E9.88509
G1 X83.083 Y134.315 E9.90035
G1 X82.388 Y133.684 E9.91565
G1 X81.75 Y132.997 E9.93093
G1 X81.055 Y132.09 E9.94956
G1 X80.699 Y131.565 E9.95989
G1 X80.478 Y131.224 E9.96652
G1 X80.002 Y130.416 E9.9818
G1 X79.597 Y129.571 E9.99707
G1 X79.265 Y128.694 E10.01235
G1 X78.94 Y127.484 E10.03277
G1 X78.793 Y126.756 E10.04488
G1 X78.73 Y126.402 E10.05074
G1 X78.605 Y125.473 E10.06601
G1 X78.561 Y124.654 E10.07938
G1 X78.55 Y123.86 E10.09232
G1 X78.552 Y96.002 E10.54634
G0 F6000 X78.952 Y96.01
G1 F1200 X78.966 Y95.277 E10.55828
G1 X79.023 Y94.358 E10.57329
G1 X79.174 Y93.381 E10.5894
G1 X79.319 Y92.663 E10.60134
G1 X79.54 Y91.769 E10.61635
G1 X79.838 Y90.898 E10.63135
G1 X80.21 Y90.056 E10.64635
G1 X80.738 Y89.114 E10.66395
G1 X81.177 Y88.44 E10.67706
G1 X81.448 Y88.052 E10.68478
G1 X82.007 Y87.321 E10.69977
G1 X82.628 Y86.641 E10.71478
G1 X83.306 Y86.018 E10.72979
G1 X84.135 Y85.385 E10.74679
G1 X84.662 Y85.029 E10.75715
G1 X85.007 Y84.806 E10.76385
G1 X85.801 Y84.34 E10.77885
G1 X86.633 Y83.945 E10.79386
G1 X87.495 Y83.624 E10.80885
G1 X88.465 Y83.36 E10.82523
G1 X89.267 Y83.193 E10.83859
G1 X89.716 Y83.115 E10.84601
G1 X90.629 Y82.997 E10.86102
G1 X91.377 Y82.96 E10.87322
G1 X92.154 Y82.95 E10.88589
G1 X127.788 Y82.95 E11.46663
G1 X128.723 Y82.966 E11.48187
G1 X129.642 Y83.023 E11.49688
G1 X130.63 Y83.176 E11.51317
G1 X131.354 Y83.323 E11.52521
G1 X132.248 Y83.545 E11.54022
G1 X133.118 Y83.844 E11.55522
G1 X133.96 Y84.217 E11.57022
G1 X134.955 Y84.78 E11.58886
G1 X135.544 Y85.166 E11.60033
G1 X135.932 Y85.436 E11.60804
G1 X136.664 Y85.995 E11.62305
G1 X137.345 Y86.614 E11.63805
G1 X137.969 Y87.29 E11.65304
G1 X138.697 Y88.257 E11.67277
G1 X139.109 Y88.875 E11.68487
G1 X139.586 Y89.663 E11.69988
G1 X139.992 Y90.489 E11.71488
G1 X140.326 Y91.347 E11.72989
G1 X140.668 Y92.603 E11.7511
G1 X140.816 Y93.336 E11.76329
G1 X140.876 Y93.673 E11.76887
G1 X140.998 Y94.586 E11.78388
G1 X141.037 Y95.29 E11.79537
G1 X141.05 Y95.97 E11.80646
G1 X141.048 Y123.99 E12.26311
G1 X141.034 Y124.723 E12.27506
G1 X140.977 Y125.642 E12.29006
G1 X140.826 Y126.622 E12.30622
G1 X140.68 Y127.344 E12.31823
G1 X140.458 Y128.238 E12.33324
G1 X140.16 Y129.109 E12.34824
G1 X139.787 Y129.95 E12.36324
G1 X139.225 Y130.946 E12.38188
G1 X138.82 Y131.563 E12.3939
G1 X138.548 Y131.952 E12.40164
G1 X137.988 Y132.683 E12.41665
G1 X137.367 Y133.363 E12.43166
G1 X136.689 Y133.986 E12.44666
G1 X135.864 Y134.615 E12.46357
G1 X135.349 Y134.964 E12.47371
G1 X135.005 Y135.187 E12.48039
G1 X134.211 Y135.653 E12.49539
G1 X133.38 Y136.05 E12.5104
G1 X132.518 Y136.372 E12.5254
G1 X131.512 Y136.645 E12.54239
G1 X130.726 Y136.807 E12.55547
G1 X130.283 Y136.884 E12.5628
G1 X129.37 Y137.003 E12.5778
G1 X128.613 Y137.04 E12.59015
G1 X127.812 Y137.05 E12.60321
G1 X92.01 Y137.048 E13.18669
G1 X91.277 Y137.034 E13.19864
G1 X90.358 Y136.977 E13.21364
G1 X89.37 Y136.824 E13.22994
G1 X88.646 Y136.677 E13.24198
G1 X87.752 Y136.455 E13.25699
G1 X86.882 Y136.156 E13.27198
G1 X86.04 Y135.783 E13.28699
G1 X85.045 Y135.22 E13.30562
G1 X84.447 Y134.827 E13.31729
G1 X84.057 Y134.555 E13.32504
G1 X83.326 Y133.996 E13.34003
G1 X82.645 Y133.376 E13.35504
G1 X82.022 Y132.699 E13.37004
G1 X81.384 Y131.864 E13.38716
G1 X81.035 Y131.348 E13.39732
G1 X80.814 Y131.007 E13.40394
G1 X80.347 Y130.213 E13.41895
G1 X79.951 Y129.382 E13.43395
G1 X79.629 Y128.52 E13.44895
G1 X79.332 Y127.403 E13.46779
G1 X79.187 Y126.686 E13.47971
G1 X79.124 Y126.332 E13.48557
G1 X79.002 Y125.42 E13.50056
G1 X78.961 Y124.647 E13.51318
G1 X78.95 Y123.86 E13.52601
G1 X78.952 Y96.01 E13.97989
G0 F6000 X79.352 Y96.017
G1 F1200 X79.366 Y95.284 E13.99184
G1 X79.423 Y94.383 E14.00655
G1 X79.566 Y93.46 E14.02177
G1 X79.711 Y92.742 E14.03371
G1 X79.929 Y91.865 E14.04844
G1 X80.223 Y91.012 E14.06314
G1 X80.592 Y90.187 E14.07787
G1 X81.077 Y89.327 E14.09396
G1 X81.505 Y88.669 E14.10676
G1 X81.776 Y88.281 E14.11447
G1 X82.325 Y87.565 E14.12917
G1 X82.936 Y86.899 E14.1439
G1 X83.603 Y86.29 E14.15862
G1 X84.362 Y85.715 E14.17414
G1 X84.879 Y85.365 E14.18432
G1 X85.224 Y85.142 E14.19101
G1 X86.003 Y84.686 E14.20572
G1 X86.82 Y84.3 E14.22045
G1 X87.668 Y83.988 E14.23518
G1 X88.552 Y83.75 E14.2501
G1 X89.335 Y83.588 E14.26313
G1 X89.784 Y83.51 E14.27055
G1 X90.68 Y83.394 E14.28528
G1 X91.383 Y83.36 E14.29675
G1 X92.154 Y83.35 E14.30932
G1 X127.788 Y83.35 E14.89006
G1 X128.716 Y83.366 E14.90519
G1 X129.617 Y83.423 E14.9199
G1 X130.551 Y83.568 E14.9353
G1 X131.275 Y83.715 E14.94734
G1 X132.151 Y83.934 E14.96206
G1 X133.004 Y84.229 E14.97677
G1 X133.828 Y84.599 E14.99149
G1 X134.739 Y85.117 E15.00857
G1 X135.315 Y85.495 E15.0198
G1 X135.703 Y85.765 E15.0275
G1 X136.421 Y86.313 E15.04222
G1 X137.087 Y86.922 E15.05693
G1 X137.697 Y87.588 E15.07165
G1 X138.364 Y88.479 E15.08979
G1 X138.776 Y89.097 E15.10189
G1 X139.243 Y89.87 E15.11661
G1 X139.64 Y90.681 E15.13133
G1 X139.964 Y91.524 E15.14605
G1 X140.277 Y92.685 E15.16564
G1 X140.422 Y93.406 E15.17763
G1 X140.482 Y93.743 E15.18321
G1 X140.601 Y94.638 E15.19792
G1 X140.637 Y95.299 E15.20871
G1 X140.65 Y95.97 E15.21965
G1 X140.648 Y123.983 E15.67619
G1 X140.634 Y124.716 E15.68814
G1 X140.577 Y125.617 E15.70285
G1 X140.434 Y126.543 E15.71812
G1 X140.288 Y127.265 E15.73013
G1 X140.07 Y128.141 E15.74484
G1 X139.775 Y128.995 E15.75956
G1 X139.406 Y129.819 E15.77428
G1 X138.888 Y130.73 E15.79136
G1 X138.492 Y131.334 E15.80313
G1 X138.22 Y131.723 E15.81086
G1 X137.67 Y132.439 E15.82558
G1 X137.059 Y133.105 E15.84031
G1 X136.392 Y133.713 E15.85502
G1 X135.637 Y134.285 E15.87045
G1 X135.131 Y134.628 E15.88041
G1 X134.787 Y134.851 E15.8871
G1 X134.009 Y135.308 E15.9018
G1 X133.192 Y135.695 E15.91653
G1 X132.345 Y136.008 E15.93125
G1 X131.426 Y136.255 E15.94676
G1 X130.658 Y136.413 E15.95954
G1 X130.215 Y136.49 E15.96687
G1 X129.319 Y136.605 E15.98159
G1 X128.608 Y136.64 E15.99319
G1 X127.812 Y136.65 E16.00616
G1 X92.017 Y136.648 E16.58953
G1 X91.284 Y136.634 E16.60148
G1 X90.383 Y136.577 E16.61619
G1 X89.449 Y136.432 E16.6316
G1 X88.725 Y136.285 E16.64364
G1 X87.849 Y136.066 E16.65835
G1 X86.996 Y135.771 E16.67306
G1 X86.172 Y135.401 E16.68778
G1 X85.261 Y134.883 E16.70486
G1 X84.676 Y134.499 E16.71627
G1 X84.286 Y134.227 E16.72402
G1 X83.569 Y133.678 E16.73873
G1 X82.903 Y133.068 E16.75345
G1 X82.294 Y132.401 E16.76817
G1 X81.714 Y131.637 E16.78381
G1 X81.37 Y131.13 E16.79379
G1 X81.149 Y130.789 E16.80041
G1 X80.692 Y130.011 E16.81512
G1 X80.306 Y129.194 E16.82985
