;FLAVOR:Marlin
;TIME:2889
;Filament used: 0.909398m
;Layer height: 0.1
;MINX:77.75
;MINY:81.75
;MINZ:0.1
;MAXX:142.25
;MAXY:138.25
;MAXZ:6
;Generated with Cura_SteamEngine 5.0.0
M140 S45
M105
M190 S45
M104 S220
M105
M109 S220
M82 ;absolute extrusion mode
M201 X500.00 Y500.00 Z100.00 E5000.00 ;Setup machine max acceleration
M203 X500.00 Y500.00 Z10.00 E50.00 ;Setup machine max feedrate
M204 P500.00 R1000.00 T500.00 ;Setup Print/Retract/Travel acceleration
M205 X8.00 Y8.00 Z0.40 E5.00 ;Setup Jerk
M220 S100 ;Reset Feedrate
M221 S100 ;Reset Flowrate

G28 ;Home
M420 S1 Z2 ;Enable ABL using saved Mesh and Fade Height

G92 E0 ;Reset Extruder
G1 Z2.0 F3000 ;Move Z Axis up
G1 X10.1 Y20 Z0.28 F5000.0 ;Move to start position
G1 X10.1 Y200.0 Z0.28 F1500.0 E15 ;Draw the first line
G1 X10.4 Y200.0 Z0.28 F5000.0 ;Move to side a little
G1 X10.4 Y20 Z0.28 F1500.0 E30 ;Draw the second line
G92 E0 ;Reset Extruder
G1 Z2.0 F3000 ;Move Z Axis up

G92 E0
G92 E0
G1 F2400 E-4.5
;LAYER_COUNT:60
;LAYER:0
M107
G0 F6000 X81.645 Y85.929 Z0.1
G0 X77.752 Y95.987
;TYPE:SKIRT
G1 F2400 E0
G1 F1200 X77.766 Y95.254 E0.01195
G1 X77.825 Y94.284 E0.02779
G1 X77.998 Y93.143 E0.04659
G1 X78.143 Y92.425 E0.05853
G1 X78.374 Y91.482 E0.07435
G1 X78.682 Y90.56 E0.0902
G1 X79.065 Y89.668 E0.10602
G1 X79.734 Y88.457 E0.12857
G1 X80.151 Y87.814 E0.14106
G1 X80.415 Y87.431 E0.14864
G1 X80.999 Y86.655 E0.16446
G1 X81.645 Y85.929 E0.1803
G1 X82.348 Y85.259 E0.19613
G1 X83.43 Y84.415 E0.21849
G1 X83.988 Y84.036 E0.22949
G1 X84.325 Y83.817 E0.23604
G1 X85.161 Y83.321 E0.25188
G1 X86.034 Y82.896 E0.2677
G1 X86.94 Y82.545 E0.28354
G1 X87.871 Y82.269 E0.29936
G1 X88.787 Y82.068 E0.31465
G1 X89.456 Y81.944 E0.32574
G1 X90.418 Y81.813 E0.34156
G1 X91.283 Y81.763 E0.35568
G1 X92.007 Y81.75 E0.36748
G1 X127.788 Y81.75 E0.95062
G1 X128.746 Y81.766 E0.96624
G1 X129.716 Y81.825 E0.98207
G1 X130.869 Y82 E1.00108
G1 X131.593 Y82.147 E1.01312
G1 X132.536 Y82.379 E1.02895
G1 X133.457 Y82.688 E1.04478
G1 X134.349 Y83.072 E1.06061
G1 X135.601 Y83.769 E1.08396
G1 X136.239 Y84.188 E1.0964
G1 X136.629 Y84.46 E1.10415
G1 X137.402 Y85.048 E1.11998
G1 X138.125 Y85.698 E1.13582
G1 X138.791 Y86.405 E1.15165
G1 X139.397 Y87.164 E1.16748
G1 X139.707 Y87.608 E1.17631
G1 X140.117 Y88.225 E1.18838
G1 X140.621 Y89.056 E1.20422
G1 X141.055 Y89.925 E1.22005
G1 X141.416 Y90.827 E1.23588
G1 X141.794 Y92.133 E1.25804
G1 X141.864 Y92.44 E1.26317
G1 X141.983 Y93.031 E1.273
G1 X142.065 Y93.5 E1.28076
G1 X142.192 Y94.463 E1.29659
G1 X142.24 Y95.37 E1.31139
G1 X142.25 Y96.189 E1.32474
G1 X142.248 Y124.015 E1.77823
G1 X142.234 Y124.747 E1.79016
G1 X142.175 Y125.716 E1.80599
G1 X142.002 Y126.86 E1.82484
G1 X141.856 Y127.582 E1.83685
G1 X141.624 Y128.525 E1.85267
G1 X141.316 Y129.446 E1.8685
G1 X140.933 Y130.339 E1.88434
G1 X140.237 Y131.591 E1.90768
G1 X139.803 Y132.251 E1.92055
G1 X139.531 Y132.64 E1.92829
G1 X138.942 Y133.412 E1.94412
G1 X138.292 Y134.134 E1.95995
G1 X137.584 Y134.799 E1.97578
G1 X136.543 Y135.604 E1.99723
G1 X136.002 Y135.971 E2.00788
G1 X135.658 Y136.194 E2.01456
G1 X134.822 Y136.688 E2.03039
G1 X133.948 Y137.112 E2.04622
G1 X133.042 Y137.462 E2.06205
G1 X131.769 Y137.818 E2.08359
G1 X130.932 Y137.99 E2.09752
G1 X130.489 Y138.067 E2.10484
G1 X129.526 Y138.194 E2.12067
G1 X128.63 Y138.24 E2.1353
G1 X127.812 Y138.25 E2.14863
G1 X91.987 Y138.248 E2.73249
G1 X91.254 Y138.234 E2.74443
G1 X90.284 Y138.175 E2.76027
G1 X89.131 Y138 E2.77928
G1 X88.407 Y137.853 E2.79132
G1 X87.464 Y137.621 E2.80714
G1 X86.543 Y137.312 E2.82298
G1 X85.651 Y136.928 E2.8388
G1 X84.399 Y136.231 E2.86216
G1 X83.788 Y135.83 E2.87407
G1 X83.4 Y135.561 E2.88176
G1 X82.625 Y134.976 E2.89759
G1 X81.901 Y134.328 E2.91342
G1 X81.233 Y133.623 E2.92925
G1 X80.391 Y132.537 E2.95165
G1 X80.021 Y131.99 E2.96241
G1 X79.798 Y131.645 E2.9691
G1 X79.305 Y130.808 E2.98494
G1 X78.882 Y129.933 E3.00077
G1 X78.532 Y129.027 E3.0166
G1 X78.18 Y127.759 E3.03805
G1 X78.01 Y126.927 E3.05189
G1 X77.934 Y126.49 E3.05912
G1 X77.807 Y125.527 E3.07495
G1 X77.76 Y124.63 E3.08959
G1 X77.75 Y123.812 E3.10292
G1 X77.752 Y95.987 E3.5564
G0 F6000 X78.152 Y95.994
G1 F1200 X78.166 Y95.261 E3.56835
G1 X78.224 Y94.308 E3.58391
G1 X78.39 Y93.222 E3.60181
G1 X78.535 Y92.504 E3.61375
G1 X78.763 Y91.577 E3.62931
G1 X79.067 Y90.672 E3.64487
G1 X79.447 Y89.796 E3.66043
G1 X80.072 Y88.671 E3.6814
G1 X80.481 Y88.041 E3.69364
G1 X80.745 Y87.658 E3.70122
G1 X81.319 Y86.895 E3.71678
G1 X81.955 Y86.183 E3.73234
G1 X82.649 Y85.527 E3.74791
G1 X83.657 Y84.744 E3.76871
G1 X84.206 Y84.371 E3.77953
G1 X84.543 Y84.152 E3.78608
G1 X85.365 Y83.666 E3.80164
G1 X86.224 Y83.25 E3.81719
G1 X87.116 Y82.908 E3.83276
G1 X88.439 Y82.549 E3.8551
G1 X89.179 Y82.4 E3.86741
G1 X89.526 Y82.338 E3.87315
G1 X90.472 Y82.209 E3.88871
G1 X91.292 Y82.163 E3.9021
G1 X92.007 Y82.15 E3.91375
G1 X127.788 Y82.15 E4.49689
G1 X128.739 Y82.166 E4.51239
G1 X129.692 Y82.224 E4.52795
G1 X130.789 Y82.392 E4.54604
G1 X131.513 Y82.539 E4.55808
G1 X132.44 Y82.768 E4.57364
G1 X133.345 Y83.074 E4.58921
G1 X134.221 Y83.454 E4.60477
G1 X135.386 Y84.106 E4.62653
G1 X136.01 Y84.517 E4.63871
G1 X136.4 Y84.789 E4.64646
G1 X137.16 Y85.367 E4.66202
G1 X137.868 Y86.007 E4.67757
G1 X138.521 Y86.704 E4.69314
G1 X139.374 Y87.83 E4.71616
G1 X139.784 Y88.447 E4.72823
G1 X140.278 Y89.263 E4.74378
G1 X140.703 Y90.118 E4.75934
G1 X141.055 Y91.006 E4.77491
G1 X141.404 Y92.222 E4.79552
G1 X141.474 Y92.529 E4.80066
G1 X141.589 Y93.1 E4.81015
G1 X141.671 Y93.569 E4.81791
G1 X141.796 Y94.515 E4.83346
G1 X141.84 Y95.376 E4.84751
G1 X141.85 Y96.189 E4.86076
G1 X141.848 Y124.007 E5.31412
G1 X141.834 Y124.739 E5.32606
G1 X141.776 Y125.692 E5.34162
G1 X141.61 Y126.781 E5.35957
G1 X141.464 Y127.503 E5.37157
G1 X141.236 Y128.43 E5.38713
G1 X140.931 Y129.334 E5.40268
G1 X140.551 Y130.21 E5.41824
G1 X139.9 Y131.376 E5.44001
G1 X139.476 Y132.022 E5.4526
G1 X139.204 Y132.411 E5.46034
G1 X138.624 Y133.17 E5.4759
G1 X137.983 Y133.877 E5.49146
G1 X137.285 Y134.529 E5.50702
G1 X136.317 Y135.274 E5.52693
G1 X135.784 Y135.635 E5.53742
G1 X135.44 Y135.858 E5.5441
G1 X134.618 Y136.343 E5.55966
G1 X133.758 Y136.758 E5.57522
G1 X132.866 Y137.1 E5.59079
G1 X131.683 Y137.427 E5.61079
G1 X130.863 Y137.596 E5.62444
G1 X130.42 Y137.673 E5.63177
G1 X129.474 Y137.797 E5.64731
G1 X128.624 Y137.84 E5.66119
G1 X127.812 Y137.85 E5.67442
G1 X91.994 Y137.848 E6.25816
G1 X91.261 Y137.834 E6.27011
G1 X90.308 Y137.776 E6.28567
G1 X89.211 Y137.608 E6.30376
G1 X88.487 Y137.461 E6.3158
G1 X87.56 Y137.232 E6.33136
G1 X86.655 Y136.926 E6.34693
G1 X85.779 Y136.546 E6.36249
G1 X84.614 Y135.894 E6.38425
G1 X84.016 Y135.502 E6.3959
G1 X83.628 Y135.233 E6.4036
G1 X82.867 Y134.656 E6.41916
G1 X82.156 Y134.018 E6.43473
G1 X81.502 Y133.323 E6.45028
G1 X80.721 Y132.311 E6.47112
G1 X80.357 Y131.772 E6.48172
G1 X80.134 Y131.427 E6.48841
G1 X79.65 Y130.605 E6.50396
G1 X79.236 Y129.744 E6.51953
G1 X78.896 Y128.852 E6.53508
G1 X78.571 Y127.673 E6.55502
G1 X78.404 Y126.858 E6.56857
G1 X78.328 Y126.421 E6.5758
G1 X78.204 Y125.475 E6.59135
G1 X78.16 Y124.624 E6.60524
G1 X78.15 Y123.812 E6.61848
G1 X78.152 Y95.994 E7.07184
G0 F6000 X78.552 Y96.002
G1 F1200 X78.566 Y95.269 E7.08379
G1 X78.624 Y94.333 E7.09907
G1 X78.782 Y93.302 E7.11607
G1 X78.927 Y92.584 E7.12801
G1 X79.151 Y91.673 E7.1433
G1 X79.453 Y90.785 E7.15858
G1 X79.829 Y89.926 E7.17386
G1 X80.41 Y88.884 E7.19331
G1 X80.81 Y88.268 E7.20528
G1 X81.074 Y87.885 E7.21286
G1 X81.639 Y87.136 E7.22815
G1 X82.265 Y86.438 E7.24343
G1 X82.949 Y85.796 E7.25872
G1 X83.884 Y85.074 E7.27797
G1 X84.424 Y84.706 E7.28862
G1 X84.761 Y84.487 E7.29517
G1 X85.569 Y84.01 E7.31046
G1 X86.414 Y83.604 E7.32574
G1 X87.29 Y83.271 E7.34101
G1 X88.521 Y82.94 E7.36179
G1 X89.249 Y82.793 E7.37389
G1 X89.596 Y82.731 E7.37964
G1 X90.526 Y82.606 E7.39493
G1 X91.3 Y82.562 E7.40757
G1 X92.007 Y82.55 E7.41909
G1 X127.788 Y82.55 E8.00223
G1 X128.731 Y82.566 E8.0176
G1 X129.667 Y82.624 E8.03288
G1 X130.71 Y82.784 E8.05008
G1 X131.434 Y82.931 E8.06212
G1 X132.344 Y83.157 E8.0774
G1 X133.232 Y83.459 E8.09269
G1 X134.091 Y83.836 E8.10798
G1 X135.17 Y84.443 E8.12815
G1 X135.782 Y84.845 E8.14009
G1 X136.172 Y85.117 E8.14784
G1 X136.917 Y85.685 E8.1631
G1 X137.612 Y86.316 E8.1784
G1 X138.25 Y87.003 E8.19368
G1 X139.041 Y88.051 E8.21508
G1 X139.451 Y88.668 E8.22715
G1 X139.936 Y89.471 E8.24244
G1 X140.351 Y90.312 E8.25773
G1 X140.693 Y91.185 E8.27301
G1 X141.014 Y92.311 E8.29209
G1 X141.195 Y93.168 E8.30636
G1 X141.277 Y93.637 E8.31412
G1 X141.399 Y94.567 E8.32941
G1 X141.44 Y95.381 E8.34269
G1 X141.45 Y96.189 E8.35586
G1 X141.448 Y123.999 E8.80909
G1 X141.434 Y124.731 E8.82103
G1 X141.376 Y125.667 E8.83631
G1 X141.218 Y126.701 E8.85336
G1 X141.072 Y127.423 E8.86536
G1 X140.847 Y128.334 E8.88066
G1 X140.545 Y129.222 E8.89594
G1 X140.169 Y130.081 E8.91122
G1 X139.563 Y131.161 E8.93141
G1 X139.148 Y131.792 E8.94371
G1 X138.876 Y132.181 E8.95145
G1 X138.306 Y132.926 E8.96674
G1 X137.675 Y133.62 E8.98203
G1 X136.987 Y134.258 E8.99732
G1 X136.09 Y134.944 E9.01572
G1 X135.567 Y135.299 E9.02602
G1 X135.223 Y135.522 E9.0327
G1 X134.415 Y135.998 E9.04799
G1 X133.569 Y136.404 E9.06328
G1 X132.692 Y136.736 E9.07856
G1 X131.597 Y137.036 E9.09707
G1 X130.795 Y137.202 E9.11041
G1 X130.352 Y137.279 E9.11774
G1 X129.422 Y137.4 E9.13303
G1 X128.619 Y137.44 E9.14613
G1 X127.812 Y137.45 E9.15928
G1 X92.002 Y137.448 E9.74289
G1 X91.269 Y137.434 E9.75484
G1 X90.333 Y137.376 E9.77013
G1 X89.29 Y137.216 E9.78732
G1 X88.566 Y137.069 E9.79936
G1 X87.656 Y136.843 E9.81465
G1 X86.768 Y136.541 E9.82993
G1 X85.909 Y136.164 E9.84522
G1 X84.83 Y135.557 E9.8654
G1 X84.244 Y135.173 E9.87681
G1 X83.856 Y134.904 E9.88451
G1 X83.108 Y134.337 E9.89981
G1 X82.412 Y133.709 E9.91508
G1 X81.772 Y133.024 E9.93036
G1 X81.051 Y132.085 E9.94966
G1 X80.693 Y131.555 E9.96008
G1 X80.47 Y131.21 E9.96677
G1 X79.995 Y130.402 E9.98205
G1 X79.59 Y129.556 E9.99734
G1 X79.259 Y128.678 E10.01263
G1 X78.962 Y127.588 E10.03104
G1 X78.798 Y126.79 E10.04432
G1 X78.722 Y126.353 E10.05155
G1 X78.601 Y125.423 E10.06683
G1 X78.56 Y124.619 E10.07995
G1 X78.55 Y123.812 E10.0931
G1 X78.552 Y96.002 E10.54634
G0 F6000 X78.952 Y96.01
G1 F1200 X78.966 Y95.277 E10.55828
G1 X79.023 Y94.358 E10.57329
G1 X79.174 Y93.381 E10.5894
G1 X79.319 Y92.663 E10.60134
G1 X79.54 Y91.769 E10.61635
G1 X79.838 Y90.898 E10.63135
G1 X80.21 Y90.056 E10.64635
G1 X80.749 Y89.098 E10.66427
G1 X81.139 Y88.495 E10.67597
G1 X81.403 Y88.112 E10.68355
G1 X81.958 Y87.378 E10.69855
G1 X82.575 Y86.694 E10.71356
G1 X83.249 Y86.066 E10.72858
G1 X84.112 Y85.403 E10.74631
G1 X84.642 Y85.042 E10.75676
G1 X84.979 Y84.823 E10.76331
G1 X85.772 Y84.355 E10.77832
G1 X86.603 Y83.958 E10.79333
G1 X87.465 Y83.635 E10.80833
G1 X88.602 Y83.332 E10.82751
G1 X89.32 Y83.187 E10.83945
G1 X89.667 Y83.125 E10.84519
G1 X90.579 Y83.003 E10.86019
G1 X91.308 Y82.962 E10.87209
G1 X92.007 Y82.95 E10.88348
G1 X127.788 Y82.95 E11.46662
G1 X128.723 Y82.966 E11.48186
G1 X129.642 Y83.023 E11.49687
G1 X130.63 Y83.176 E11.51316
G1 X131.354 Y83.323 E11.5252
G1 X132.248 Y83.545 E11.54021
G1 X133.118 Y83.844 E11.55521
G1 X133.96 Y84.217 E11.57021
G1 X134.955 Y84.78 E11.58885
G1 X135.553 Y85.173 E11.60051
G1 X135.943 Y85.445 E11.60826
G1 X136.674 Y86.004 E11.62326
G1 X137.355 Y86.624 E11.63826
G1 X137.978 Y87.301 E11.65326
G1 X138.708 Y88.272 E11.67306
G1 X139.118 Y88.889 E11.68513
G1 X139.593 Y89.678 E11.70014
G1 X139.999 Y90.504 E11.71514
G1 X140.331 Y91.363 E11.73015
G1 X140.624 Y92.4 E11.74771
G1 X140.801 Y93.237 E11.76165
G1 X140.883 Y93.706 E11.76941
G1 X141.002 Y94.619 E11.78442
G1 X141.04 Y95.387 E11.79695
G1 X141.05 Y96.189 E11.81002
G1 X141.048 Y123.992 E12.26314
G1 X141.034 Y124.724 E12.27507
G1 X140.976 Y125.643 E12.29008
G1 X140.826 Y126.622 E12.30622
G1 X140.68 Y127.344 E12.31823
G1 X140.458 Y128.238 E12.33324
G1 X140.16 Y129.109 E12.34824
G1 X139.787 Y129.95 E12.36323
G1 X139.225 Y130.946 E12.38187
G1 X138.82 Y131.563 E12.3939
G1 X138.548 Y131.952 E12.40164
G1 X137.988 Y132.683 E12.41664
G1 X137.367 Y133.363 E12.43165
G1 X136.689 Y133.986 E12.44666
G1 X135.864 Y134.615 E12.46357
G1 X135.349 Y134.964 E12.4737
G1 X135.005 Y135.187 E12.48039
G1 X134.211 Y135.653 E12.49539
G1 X133.38 Y136.05 E12.5104
G1 X132.518 Y136.372 E12.5254
G1 X131.512 Y136.645 E12.54238
G1 X130.726 Y136.807 E12.55546
G1 X130.283 Y136.884 E12.56279
G1 X129.37 Y137.003 E12.5778
G1 X128.613 Y137.04 E12.59015
G1 X127.812 Y137.05 E12.6032
G1 X92.01 Y137.048 E13.18669
G1 X91.277 Y137.034 E13.19863
G1 X90.358 Y136.977 E13.21364
G1 X89.37 Y136.824 E13.22993
G1 X88.646 Y136.677 E13.24197
G1 X87.752 Y136.455 E13.25699
G1 X86.882 Y136.156 E13.27198
G1 X86.04 Y135.783 E13.28699
G1 X85.045 Y135.22 E13.30562
G1 X84.472 Y134.844 E13.31679
G1 X84.084 Y134.575 E13.32448
G1 X83.35 Y134.018 E13.3395
G1 X82.668 Y133.4 E13.3545
G1 X82.043 Y132.725 E13.36949
G1 X81.381 Y131.859 E13.38726
G1 X81.029 Y131.338 E13.3975
G1 X80.806 Y130.993 E13.4042
G1 X80.34 Y130.199 E13.4192
G1 X79.945 Y129.367 E13.43421
G1 X79.624 Y128.505 E13.4492
G1 X79.352 Y127.502 E13.46614
G1 X79.192 Y126.721 E13.47913
G1 X79.116 Y126.284 E13.48636
G1 X78.998 Y125.371 E13.50137
G1 X78.96 Y124.613 E13.51374
G1 X78.95 Y123.812 E13.52679
G1 X78.952 Y96.01 E13.97989
G0 F6000 X79.352 Y96.017
G1 F1200 X79.366 Y95.284 E13.99184
G1 X79.423 Y94.383 E14.00655
G1 X79.566 Y93.46 E14.02178
G1 X79.711 Y92.742 E14.03371
G1 X79.929 Y91.865 E14.04844
G1 X80.223 Y91.012 E14.06315
G1 X80.592 Y90.187 E14.07788
G1 X81.087 Y89.312 E14.09426
G1 X81.469 Y88.722 E14.10571
G1 X81.733 Y88.339 E14.1133
G1 X82.278 Y87.619 E14.12801
G1 X82.884 Y86.95 E14.14272
G1 X83.548 Y86.337 E14.15745
G1 X84.339 Y85.732 E14.17368
G1 X84.86 Y85.377 E14.18396
G1 X85.197 Y85.158 E14.19051
G1 X85.975 Y84.7 E14.20522
G1 X86.791 Y84.313 E14.21994
G1 X87.638 Y83.999 E14.23466
G1 X88.683 Y83.724 E14.25227
G1 X89.39 Y83.581 E14.26403
G1 X89.737 Y83.519 E14.26977
G1 X90.632 Y83.4 E14.28449
G1 X91.317 Y83.362 E14.29567
G1 X92.007 Y83.35 E14.30691
G1 X127.788 Y83.35 E14.89005
G1 X128.716 Y83.366 E14.90518
G1 X129.617 Y83.423 E14.91989
G1 X130.551 Y83.568 E14.9353
G1 X131.275 Y83.715 E14.94734
G1 X132.151 Y83.934 E14.96205
G1 X133.004 Y84.229 E14.97676
G1 X133.828 Y84.599 E14.99148
G1 X134.739 Y85.117 E15.00856
G1 X135.324 Y85.501 E15.01997
G1 X135.714 Y85.773 E15.02772
G1 X136.431 Y86.322 E15.04243
G1 X137.097 Y86.932 E15.05715
G1 X137.706 Y87.599 E15.07187
G1 X138.374 Y88.494 E15.09007
G1 X138.784 Y89.111 E15.10215
G1 X139.25 Y89.884 E15.11686
G1 X139.646 Y90.696 E15.13158
G1 X139.969 Y91.54 E15.14631
G1 X140.234 Y92.488 E15.16235
G1 X140.407 Y93.306 E15.17598
G1 X140.489 Y93.775 E15.18374
G1 X140.605 Y94.671 E15.19846
G1 X140.64 Y95.392 E15.21022
G1 X140.65 Y96.189 E15.22321
G1 X140.648 Y123.984 E15.6762
G1 X140.634 Y124.716 E15.68813
G1 X140.577 Y125.617 E15.70285
G1 X140.434 Y126.543 E15.71812
G1 X140.288 Y127.265 E15.73012
G1 X140.07 Y128.141 E15.74484
G1 X139.775 Y128.995 E15.75956
G1 X139.406 Y129.819 E15.77427
G1 X138.888 Y130.73 E15.79135
G1 X138.492 Y131.334 E15.80312
G1 X138.22 Y131.723 E15.81086
G1 X137.67 Y132.439 E15.82557
G1 X137.059 Y133.105 E15.8403
G1 X136.392 Y133.713 E15.85501
G1 X135.637 Y134.285 E15.87045
G1 X135.131 Y134.628 E15.88041
G1 X134.787 Y134.851 E15.88709
G1 X134.009 Y135.308 E15.9018
G1 X133.192 Y135.695 E15.91653
G1 X132.345 Y136.008 E15.93125
G1 X131.426 Y136.255 E15.94676
G1 X130.658 Y136.413 E15.95954
G1 X130.215 Y136.49 E15.96686
G1 X129.319 Y136.605 E15.98159
G1 X128.608 Y136.64 E15.99319
G1 X127.812 Y136.65 E16.00616
G1 X92.017 Y136.648 E16.58953
G1 X91.284 Y136.634 E16.60148
G1 X90.383 Y136.577 E16.61619
G1 X89.449 Y136.432 E16.6316
G1 X88.725 Y136.285 E16.64364
G1 X87.849 Y136.066 E16.65835
G1 X86.996 Y135.771 E16.67306
G1 X86.172 Y135.401 E16.68778
G1 X85.261 Y134.883 E16.70486
G1 X84.699 Y134.515 E16.71581
G1 X84.311 Y134.246 E16.7235
G1 X83.593 Y133.7 E16.73821
G1 X82.925 Y133.091 E16.75294
G1 X82.314 Y132.426 E16.76765
G1 X81.711 Y131.632 E16.7839
G1 X81.365 Y131.121 E16.79396
G1 X81.142 Y130.776 E16.80066
G1 X80.686 Y129.997 E16.81537
G1 X80.3 Y129.18 E16.83009
