;FLAVOR:Marlin
;TIME:3904
;Filament used: 1.33687m
;Layer height: 0.1
;MINX:77.75
;MINY:81.75
;MINZ:0.1
;MAXX:142.25
;MAXY:138.25
;MAXZ:9.6
;Generated with Cura_SteamEngine 5.0.0
M140 S45
M105
M190 S45
M104 S220
M105
M109 S220
M82 ;absolute extrusion mode
M201 X500.00 Y500.00 Z100.00 E5000.00 ;Setup machine max acceleration
M203 X500.00 Y500.00 Z10.00 E50.00 ;Setup machine max feedrate
M204 P500.00 R1000.00 T500.00 ;Setup Print/Retract/Travel acceleration
M205 X8.00 Y8.00 Z0.40 E5.00 ;Setup Jerk
M220 S100 ;Reset Feedrate
M221 S100 ;Reset Flowrate

G28 ;Home
M420 S1 Z2 ;Enable ABL using saved Mesh and Fade Height

G92 E0 ;Reset Extruder
G1 Z2.0 F3000 ;Move Z Axis up
G1 X10.1 Y20 Z0.28 F5000.0 ;Move to start position
G1 X10.1 Y200.0 Z0.28 F1500.0 E15 ;Draw the first line
G1 X10.4 Y200.0 Z0.28 F5000.0 ;Move to side a little
G1 X10.4 Y20 Z0.28 F1500.0 E30 ;Draw the second line
G92 E0 ;Reset Extruder
G1 Z2.0 F3000 ;Move Z Axis up

G92 E0
G92 E0
G1 F2400 E-4.5
;LAYER_COUNT:96
;LAYER:0
M107
G0 F6000 X81.728 Y85.845 Z0.1
G0 X77.752 Y95.987
;TYPE:SKIRT
G1 F2400 E0
G1 F1200 X77.766 Y95.254 E0.01195
G1 X77.825 Y94.284 E0.02779
G1 X77.998 Y93.143 E0.04659
G1 X78.143 Y92.425 E0.05853
G1 X78.374 Y91.482 E0.07435
G1 X78.682 Y90.56 E0.0902
G1 X79.065 Y89.668 E0.10602
G1 X79.723 Y88.475 E0.12822
G1 X80.212 Y87.727 E0.14279
G1 X80.486 Y87.337 E0.15055
G1 X81.076 Y86.565 E0.16639
G1 X81.728 Y85.845 E0.18222
G1 X82.438 Y85.181 E0.19806
G1 X83.434 Y84.412 E0.21857
G1 X84.007 Y84.022 E0.22987
G1 X84.344 Y83.804 E0.23641
G1 X85.18 Y83.311 E0.25223
G1 X86.055 Y82.888 E0.26806
G1 X86.961 Y82.538 E0.28389
G1 X88.324 Y82.165 E0.30692
G1 X89.082 Y82.011 E0.31953
G1 X89.457 Y81.944 E0.32574
G1 X90.419 Y81.813 E0.34156
G1 X91.304 Y81.762 E0.35601
G1 X92.049 Y81.75 E0.36815
G1 X127.788 Y81.75 E0.95061
G1 X128.746 Y81.766 E0.96622
G1 X129.716 Y81.825 E0.98206
G1 X130.869 Y82 E1.00107
G1 X131.593 Y82.147 E1.01311
G1 X132.536 Y82.379 E1.02893
G1 X133.457 Y82.688 E1.04476
G1 X134.349 Y83.072 E1.06059
G1 X135.601 Y83.769 E1.08394
G1 X136.229 Y84.181 E1.09619
G1 X136.617 Y84.451 E1.10389
G1 X137.391 Y85.039 E1.11973
G1 X138.114 Y85.687 E1.13555
G1 X138.781 Y86.394 E1.15139
G1 X139.388 Y87.152 E1.16722
G1 X139.698 Y87.595 E1.17603
G1 X140.109 Y88.212 E1.18812
G1 X140.613 Y89.042 E1.20394
G1 X141.048 Y89.911 E1.21978
G1 X141.41 Y90.812 E1.2356
G1 X141.697 Y91.74 E1.25143
G1 X141.839 Y92.342 E1.26151
G1 X141.995 Y93.115 E1.27437
G1 X142.057 Y93.463 E1.28013
G1 X142.188 Y94.426 E1.29597
G1 X142.237 Y95.251 E1.30944
G1 X142.25 Y95.952 E1.32086
G1 X142.248 Y124.013 E1.77818
G1 X142.234 Y124.746 E1.79013
G1 X142.175 Y125.716 E1.80597
G1 X142.002 Y126.86 E1.82483
G1 X141.856 Y127.582 E1.83683
G1 X141.624 Y128.525 E1.85266
G1 X141.316 Y129.446 E1.86849
G1 X140.933 Y130.339 E1.88432
G1 X140.237 Y131.591 E1.90767
G1 X139.803 Y132.251 E1.92054
G1 X139.531 Y132.64 E1.92828
G1 X138.942 Y133.412 E1.9441
G1 X138.292 Y134.134 E1.95993
G1 X137.584 Y134.799 E1.97576
G1 X136.567 Y135.587 E1.99673
G1 X136.013 Y135.964 E2.00765
G1 X135.676 Y136.183 E2.0142
G1 X134.84 Y136.679 E2.03005
G1 X133.967 Y137.104 E2.04587
G1 X133.061 Y137.455 E2.0617
G1 X132.13 Y137.731 E2.07753
G1 X131.644 Y137.843 E2.08566
G1 X130.795 Y138.012 E2.09977
G1 X130.463 Y138.069 E2.10526
G1 X129.499 Y138.194 E2.1211
G1 X128.717 Y138.236 E2.13386
G1 X127.948 Y138.25 E2.1464
G1 X92.052 Y138.249 E2.73141
G1 X91.343 Y138.238 E2.74297
G1 X90.373 Y138.183 E2.7588
G1 X89.638 Y138.087 E2.77088
G1 X88.858 Y137.948 E2.78379
G1 X88.351 Y137.842 E2.79223
G1 X87.409 Y137.604 E2.80807
G1 X86.49 Y137.29 E2.8239
G1 X85.6 Y136.901 E2.83973
G1 X84.423 Y136.242 E2.86171
G1 X83.681 Y135.756 E2.87617
G1 X83.358 Y135.53 E2.88259
G1 X82.586 Y134.941 E2.89842
G1 X81.865 Y134.29 E2.91425
G1 X81.199 Y133.583 E2.93008
G1 X80.403 Y132.552 E2.95131
G1 X80 Y131.958 E2.963
G1 X79.801 Y131.65 E2.96898
G1 X79.308 Y130.813 E2.98481
G1 X78.885 Y129.938 E3.00065
G1 X78.536 Y129.032 E3.01647
G1 X78.159 Y127.648 E3.03985
G1 X77.994 Y126.827 E3.0535
G1 X77.937 Y126.502 E3.05888
G1 X77.809 Y125.54 E3.07469
G1 X77.762 Y124.696 E3.08847
G1 X77.75 Y123.956 E3.10053
G1 X77.752 Y95.987 E3.55636
G0 F6000 X78.152 Y95.994
G1 F1200 X78.166 Y95.261 E3.5683
G1 X78.224 Y94.308 E3.58386
G1 X78.39 Y93.222 E3.60177
G1 X78.535 Y92.504 E3.61371
G1 X78.763 Y91.577 E3.62926
G1 X79.067 Y90.672 E3.64482
G1 X79.447 Y89.796 E3.66038
G1 X80.061 Y88.688 E3.68103
G1 X80.539 Y87.956 E3.69528
G1 X80.813 Y87.566 E3.70305
G1 X81.394 Y86.809 E3.7186
G1 X82.037 Y86.103 E3.73416
G1 X82.736 Y85.453 E3.74972
G1 X83.661 Y84.741 E3.76874
G1 X84.224 Y84.358 E3.77984
G1 X84.561 Y84.14 E3.78638
G1 X85.384 Y83.656 E3.80194
G1 X86.244 Y83.242 E3.81749
G1 X87.136 Y82.901 E3.83306
G1 X88.406 Y82.556 E3.85451
G1 X89.152 Y82.405 E3.86691
G1 X89.527 Y82.338 E3.87312
G1 X90.473 Y82.209 E3.88868
G1 X91.312 Y82.162 E3.90237
G1 X92.049 Y82.15 E3.91439
G1 X127.788 Y82.15 E4.49684
G1 X128.739 Y82.166 E4.51234
G1 X129.692 Y82.224 E4.5279
G1 X130.789 Y82.392 E4.54599
G1 X131.513 Y82.539 E4.55803
G1 X132.44 Y82.768 E4.57359
G1 X133.345 Y83.074 E4.58916
G1 X134.221 Y83.454 E4.60472
G1 X135.386 Y84.106 E4.62648
G1 X136.001 Y84.51 E4.63847
G1 X136.389 Y84.78 E4.64618
G1 X137.149 Y85.357 E4.66173
G1 X137.858 Y85.997 E4.67729
G1 X138.511 Y86.693 E4.69285
G1 X139.365 Y87.817 E4.71585
G1 X139.776 Y88.434 E4.72794
G1 X140.271 Y89.25 E4.74349
G1 X140.697 Y90.105 E4.75906
G1 X141.049 Y90.992 E4.77461
G1 X141.326 Y91.906 E4.79018
G1 X141.447 Y92.424 E4.79885
G1 X141.601 Y93.185 E4.8115
G1 X141.663 Y93.533 E4.81726
G1 X141.791 Y94.48 E4.83283
G1 X141.837 Y95.261 E4.84559
G1 X141.85 Y95.952 E4.85685
G1 X141.848 Y124.006 E5.31406
G1 X141.834 Y124.739 E5.32601
G1 X141.776 Y125.692 E5.34157
G1 X141.61 Y126.781 E5.35952
G1 X141.464 Y127.503 E5.37152
G1 X141.236 Y128.43 E5.38708
G1 X140.931 Y129.334 E5.40263
G1 X140.551 Y130.21 E5.41819
G1 X139.9 Y131.376 E5.43996
G1 X139.476 Y132.022 E5.45255
G1 X139.204 Y132.411 E5.46029
G1 X138.624 Y133.17 E5.47585
G1 X137.983 Y133.877 E5.49141
G1 X137.285 Y134.529 E5.50697
G1 X136.339 Y135.258 E5.52644
G1 X135.795 Y135.629 E5.53717
G1 X135.458 Y135.848 E5.54372
G1 X134.636 Y136.334 E5.55928
G1 X133.777 Y136.75 E5.57484
G1 X132.885 Y137.092 E5.59041
G1 X131.563 Y137.451 E5.61273
G1 X130.727 Y137.618 E5.62663
G1 X130.395 Y137.675 E5.63212
G1 X129.448 Y137.797 E5.64768
G1 X128.708 Y137.836 E5.65975
G1 X127.948 Y137.85 E5.67214
G1 X92.058 Y137.849 E6.25706
G1 X91.349 Y137.838 E6.26861
G1 X90.396 Y137.783 E6.28417
G1 X89.702 Y137.692 E6.29558
G1 X88.94 Y137.557 E6.30819
G1 X88.433 Y137.451 E6.31663
G1 X87.507 Y137.216 E6.3322
G1 X86.605 Y136.905 E6.34775
G1 X85.731 Y136.52 E6.36332
G1 X84.638 Y135.905 E6.38376
G1 X83.91 Y135.429 E6.39793
G1 X83.587 Y135.203 E6.40436
G1 X82.829 Y134.623 E6.41991
G1 X82.121 Y133.982 E6.43548
G1 X81.47 Y133.284 E6.45103
G1 X80.732 Y132.326 E6.47074
G1 X80.336 Y131.741 E6.48225
G1 X80.137 Y131.433 E6.48823
G1 X79.653 Y130.61 E6.50379
G1 X79.239 Y129.749 E6.51936
G1 X78.899 Y128.857 E6.53492
G1 X78.551 Y127.566 E6.55671
G1 X78.388 Y126.758 E6.57014
G1 X78.331 Y126.433 E6.57552
G1 X78.206 Y125.487 E6.59107
G1 X78.162 Y124.688 E6.60411
G1 X78.15 Y123.956 E6.61604
G1 X78.152 Y95.994 E7.07175
G0 F6000 X78.552 Y96.002
G1 F1200 X78.566 Y95.269 E7.0837
G1 X78.624 Y94.333 E7.09898
G1 X78.782 Y93.302 E7.11598
G1 X78.927 Y92.584 E7.12792
G1 X79.151 Y91.673 E7.14321
G1 X79.453 Y90.785 E7.1585
G1 X79.829 Y89.926 E7.17378
G1 X80.4 Y88.901 E7.1929
G1 X80.866 Y88.186 E7.20681
G1 X81.14 Y87.796 E7.21458
G1 X81.712 Y87.053 E7.22986
G1 X82.344 Y86.36 E7.24515
G1 X83.034 Y85.724 E7.26044
G1 X83.888 Y85.07 E7.27797
G1 X84.441 Y84.694 E7.28887
G1 X84.778 Y84.476 E7.29541
G1 X85.587 Y84.001 E7.3107
G1 X86.433 Y83.596 E7.32598
G1 X87.31 Y83.265 E7.34126
G1 X88.488 Y82.948 E7.36114
G1 X89.222 Y82.798 E7.37335
G1 X89.597 Y82.731 E7.37956
G1 X90.527 Y82.606 E7.39485
G1 X91.319 Y82.562 E7.40778
G1 X92.049 Y82.55 E7.41968
G1 X127.788 Y82.55 E8.00213
G1 X128.731 Y82.566 E8.01751
G1 X129.667 Y82.624 E8.03279
G1 X130.71 Y82.784 E8.04999
G1 X131.434 Y82.931 E8.06203
G1 X132.344 Y83.157 E8.07731
G1 X133.232 Y83.459 E8.09259
G1 X134.091 Y83.836 E8.10788
G1 X135.17 Y84.443 E8.12806
G1 X135.772 Y84.838 E8.13979
G1 X136.16 Y85.108 E8.1475
G1 X136.906 Y85.676 E8.16278
G1 X137.602 Y86.306 E8.17808
G1 X138.241 Y86.992 E8.19336
G1 X139.032 Y88.039 E8.21474
G1 X139.443 Y88.656 E8.22682
G1 X139.929 Y89.458 E8.24211
G1 X140.345 Y90.298 E8.25738
G1 X140.688 Y91.171 E8.27267
G1 X141.056 Y92.506 E8.29524
G1 X141.207 Y93.256 E8.30771
G1 X141.269 Y93.604 E8.31347
G1 X141.394 Y94.533 E8.32875
G1 X141.437 Y95.271 E8.34079
G1 X141.45 Y95.952 E8.35189
G1 X141.448 Y123.998 E8.80897
G1 X141.434 Y124.731 E8.82092
G1 X141.376 Y125.667 E8.8362
G1 X141.218 Y126.701 E8.85325
G1 X141.072 Y127.423 E8.86526
G1 X140.847 Y128.334 E8.88055
G1 X140.545 Y129.222 E8.89584
G1 X140.169 Y130.081 E8.91112
G1 X139.563 Y131.161 E8.9313
G1 X139.148 Y131.792 E8.94361
G1 X138.876 Y132.181 E8.95135
G1 X138.306 Y132.926 E8.96663
G1 X137.675 Y133.62 E8.98192
G1 X136.987 Y134.258 E8.99721
G1 X136.112 Y134.929 E9.01518
G1 X135.577 Y135.294 E9.02574
G1 X135.24 Y135.513 E9.03229
G1 X134.432 Y135.99 E9.04758
G1 X133.587 Y136.396 E9.06286
G1 X132.711 Y136.729 E9.07813
G1 X131.482 Y137.059 E9.09887
G1 X130.659 Y137.223 E9.11255
G1 X130.327 Y137.28 E9.11804
G1 X129.397 Y137.4 E9.13332
G1 X128.7 Y137.437 E9.14469
G1 X127.948 Y137.45 E9.15695
G1 X92.064 Y137.449 E9.74177
G1 X91.355 Y137.438 E9.75333
G1 X90.419 Y137.383 E9.76861
G1 X89.766 Y137.297 E9.77934
G1 X89.022 Y137.165 E9.79166
G1 X88.515 Y137.059 E9.8001
G1 X87.606 Y136.828 E9.81538
G1 X86.72 Y136.521 E9.83066
G1 X85.863 Y136.139 E9.84596
G1 X84.853 Y135.567 E9.86487
G1 X84.14 Y135.101 E9.87875
G1 X83.817 Y134.875 E9.88518
G1 X83.072 Y134.305 E9.90047
G1 X82.378 Y133.674 E9.91575
G1 X81.741 Y132.985 E9.93105
G1 X81.062 Y132.099 E9.94924
G1 X80.672 Y131.524 E9.96056
G1 X80.473 Y131.216 E9.96654
G1 X79.998 Y130.407 E9.98183
G1 X79.593 Y129.561 E9.99711
G1 X79.263 Y128.683 E10.0124
G1 X78.942 Y127.485 E10.03261
G1 X78.782 Y126.689 E10.04584
G1 X78.725 Y126.364 E10.05122
G1 X78.603 Y125.434 E10.06651
G1 X78.562 Y124.68 E10.07882
G1 X78.55 Y123.956 E10.09062
G1 X78.552 Y96.002 E10.5462
G0 F6000 X78.952 Y96.01
G1 F1200 X78.966 Y95.277 E10.55814
G1 X79.023 Y94.358 E10.57315
G1 X79.174 Y93.381 E10.58926
G1 X79.319 Y92.663 E10.6012
G1 X79.54 Y91.769 E10.61621
G1 X79.838 Y90.898 E10.63121
G1 X80.21 Y90.056 E10.64621
G1 X80.738 Y89.114 E10.66381
G1 X81.194 Y88.416 E10.6774
G1 X81.468 Y88.026 E10.68517
G1 X82.029 Y87.297 E10.70016
G1 X82.652 Y86.619 E10.71517
G1 X83.331 Y85.997 E10.73017
G1 X84.116 Y85.399 E10.74626
G1 X84.659 Y85.03 E10.75696
G1 X84.996 Y84.812 E10.7635
G1 X85.79 Y84.346 E10.7785
G1 X86.621 Y83.95 E10.7935
G1 X87.484 Y83.629 E10.80851
G1 X88.571 Y83.339 E10.82684
G1 X89.293 Y83.192 E10.83885
G1 X89.668 Y83.125 E10.84506
G1 X90.58 Y83.003 E10.86006
G1 X91.327 Y82.962 E10.87225
G1 X92.049 Y82.95 E10.88402
G1 X127.788 Y82.95 E11.46647
G1 X128.723 Y82.966 E11.48171
G1 X129.642 Y83.023 E11.49672
G1 X130.63 Y83.176 E11.51301
G1 X131.354 Y83.323 E11.52505
G1 X132.248 Y83.545 E11.54007
G1 X133.118 Y83.844 E11.55506
G1 X133.96 Y84.217 E11.57007
G1 X134.955 Y84.78 E11.5887
G1 X135.544 Y85.166 E11.60018
G1 X135.932 Y85.436 E11.60788
G1 X136.664 Y85.995 E11.62289
G1 X137.345 Y86.614 E11.63789
G1 X137.969 Y87.29 E11.65288
G1 X138.699 Y88.26 E11.67267
G1 X139.11 Y88.877 E11.68475
G1 X139.587 Y89.665 E11.69976
G1 X139.993 Y90.491 E11.71476
G1 X140.326 Y91.349 E11.72976
G1 X140.664 Y92.587 E11.75068
G1 X140.814 Y93.326 E11.76296
G1 X140.876 Y93.674 E11.76873
G1 X140.998 Y94.586 E11.78372
G1 X141.037 Y95.28 E11.79505
G1 X141.05 Y95.952 E11.806
G1 X141.048 Y123.99 E12.26295
G1 X141.034 Y124.723 E12.2749
G1 X140.977 Y125.642 E12.28991
G1 X140.826 Y126.622 E12.30607
G1 X140.68 Y127.344 E12.31807
G1 X140.458 Y128.238 E12.33308
G1 X140.16 Y129.109 E12.34809
G1 X139.787 Y129.95 E12.36308
G1 X139.225 Y130.946 E12.38172
G1 X138.82 Y131.563 E12.39375
G1 X138.548 Y131.952 E12.40148
G1 X137.988 Y132.683 E12.41649
G1 X137.367 Y133.363 E12.4315
G1 X136.689 Y133.986 E12.4465
G1 X135.885 Y134.6 E12.46299
G1 X135.359 Y134.958 E12.47336
G1 X135.022 Y135.177 E12.47991
G1 X134.229 Y135.645 E12.49492
G1 X133.398 Y136.042 E12.50993
G1 X132.536 Y136.365 E12.52493
G1 X131.401 Y136.668 E12.54407
G1 X130.592 Y136.829 E12.55752
G1 X130.26 Y136.886 E12.56301
G1 X129.346 Y137.002 E12.57802
G1 X128.691 Y137.037 E12.58871
G1 X127.948 Y137.05 E12.60082
G1 X92.071 Y137.049 E13.18553
G1 X91.362 Y137.038 E13.19708
G1 X90.443 Y136.983 E13.21209
G1 X89.83 Y136.902 E13.22217
G1 X89.104 Y136.774 E13.23418
G1 X88.597 Y136.668 E13.24262
G1 X87.705 Y136.44 E13.25763
G1 X86.836 Y136.136 E13.27263
G1 X85.996 Y135.758 E13.28764
G1 X85.068 Y135.23 E13.30504
G1 X84.369 Y134.773 E13.31865
G1 X84.046 Y134.547 E13.32508
G1 X83.315 Y133.987 E13.34009
G1 X82.636 Y133.366 E13.35508
G1 X82.013 Y132.688 E13.37009
G1 X81.391 Y131.872 E13.38681
G1 X81.008 Y131.306 E13.39795
G1 X80.809 Y130.998 E13.40392
G1 X80.343 Y130.204 E13.41893
G1 X79.948 Y129.373 E13.43392
G1 X79.627 Y128.51 E13.44893
G1 X79.334 Y127.403 E13.46759
G1 X79.176 Y126.62 E13.48061
G1 X79.119 Y126.295 E13.48599
G1 X79 Y125.382 E13.50099
G1 X78.962 Y124.673 E13.51257
G1 X78.95 Y123.956 E13.52425
G1 X78.952 Y96.01 E13.9797
G0 F6000 X79.352 Y96.017
G1 F1200 X79.366 Y95.284 E13.99165
G1 X79.423 Y94.383 E14.00636
G1 X79.566 Y93.46 E14.02158
G1 X79.711 Y92.742 E14.03352
G1 X79.929 Y91.865 E14.04825
G1 X80.223 Y91.012 E14.06295
G1 X80.592 Y90.187 E14.07768
G1 X81.077 Y89.327 E14.09377
G1 X81.521 Y88.646 E14.10702
G1 X81.795 Y88.256 E14.11479
G1 X82.346 Y87.541 E14.1295
G1 X82.959 Y86.877 E14.14423
G1 X83.628 Y86.27 E14.15895
G1 X84.343 Y85.728 E14.17358
G1 X84.876 Y85.366 E14.18408
G1 X85.213 Y85.148 E14.19062
G1 X85.992 Y84.691 E14.20534
G1 X86.809 Y84.305 E14.22006
G1 X87.656 Y83.993 E14.23477
G1 X88.653 Y83.731 E14.25157
G1 X89.363 Y83.586 E14.26338
G1 X89.738 Y83.519 E14.26959
G1 X90.633 Y83.4 E14.28431
G1 X91.335 Y83.362 E14.29576
G1 X92.049 Y83.35 E14.3074
G1 X127.788 Y83.35 E14.88986
G1 X128.716 Y83.366 E14.90498
G1 X129.617 Y83.423 E14.9197
G1 X130.551 Y83.568 E14.9351
G1 X131.275 Y83.715 E14.94714
G1 X132.151 Y83.934 E14.96186
G1 X133.004 Y84.229 E14.97657
G1 X133.828 Y84.599 E14.99129
G1 X134.739 Y85.117 E15.00837
G1 X135.315 Y85.495 E15.0196
G1 X135.703 Y85.765 E15.0273
G1 X136.421 Y86.313 E15.04202
G1 X137.087 Y86.922 E15.05673
G1 X137.697 Y87.588 E15.07145
G1 X138.366 Y88.482 E15.08964
G1 X138.777 Y89.099 E15.10173
G1 X139.244 Y89.872 E15.11644
G1 X139.641 Y90.684 E15.13118
G1 X139.964 Y91.527 E15.14589
G1 X140.273 Y92.669 E15.16517
G1 X140.42 Y93.396 E15.17726
G1 X140.482 Y93.744 E15.18302
G1 X140.601 Y94.639 E15.19773
G1 X140.637 Y95.29 E15.20836
G1 X140.65 Y95.952 E15.21915
G1 X140.648 Y123.983 E15.67598
G1 X140.634 Y124.716 E15.68793
G1 X140.577 Y125.617 E15.70265
G1 X140.434 Y126.543 E15.71792
G1 X140.288 Y127.265 E15.72992
G1 X140.07 Y128.141 E15.74463
G1 X139.775 Y128.995 E15.75936
G1 X139.406 Y129.819 E15.77407
G1 X138.888 Y130.73 E15.79115
G1 X138.492 Y131.334 E15.80292
G1 X138.22 Y131.723 E15.81066
G1 X137.67 Y132.439 E15.82537
G1 X137.059 Y133.105 E15.8401
G1 X136.392 Y133.713 E15.85481
G1 X135.658 Y134.271 E15.86984
G1 X135.141 Y134.623 E15.88003
G1 X134.804 Y134.842 E15.88658
G1 X134.026 Y135.3 E15.90129
G1 X133.21 Y135.687 E15.91601
G1 X132.363 Y136.001 E15.93073
G1 X131.319 Y136.276 E15.94833
G1 X130.524 Y136.435 E15.96154
G1 X130.192 Y136.492 E15.96703
G1 X129.296 Y136.605 E15.98175
G1 X128.683 Y136.637 E15.99175
G1 X127.948 Y136.65 E16.00373
G1 X92.077 Y136.649 E16.58834
G1 X91.368 Y136.638 E16.5999
G1 X90.466 Y136.584 E16.61462
G1 X89.641 Y136.467 E16.6282
G1 X89.186 Y136.382 E16.63575
G1 X88.679 Y136.276 E16.64419
G1 X87.804 Y136.052 E16.65891
G1 X86.952 Y135.752 E16.67363
G1 X86.13 Y135.378 E16.68835
G1 X85.283 Y134.893 E16.70426
G1 X84.598 Y134.445 E16.71759
G1 X84.275 Y134.219 E16.72402
G1 X83.559 Y133.669 E16.73873
